public/avatar/item2/22.svg

<svg xmlns:xlink="http://www.w3.org/1999/xlink" height="99.2" width="82.2" xmlns="http://www.w3.org/2000/svg"><use height="9.85" transform="translate(33.3 71.5)" width="9.9" xlink:href="#a"/><defs><g id="a"><path d="M12.2 29.65q-.05 2-1.5 3.5-1.45 1.45-3.5 1.45-2 0-3.4-1.45-1.5-1.5-1.5-3.5 0-2.05 1.5-3.45 1.4-1.5 3.4-1.45 2.05-.05 3.5 1.45 1.45 1.4 1.5 3.45" fill-rule="evenodd" transform="translate(-2.3 -24.75)"/><path d="M11.15 29.65q0 1.6-1.1 2.8-1.2 1.15-2.85 1.15-1.65 0-2.8-1.15-1.15-1.2-1.15-2.8 0-1.65 1.15-2.85 1.15-1.15 2.8-1.1 1.65-.05 2.85 1.1 1.1 1.2 1.1 2.85" fill="#eef5ff" fill-rule="evenodd" transform="translate(-2.3 -24.75)"/><path d="M4.85.95V8.9M.75 4.85H8.9" fill="none" stroke="red" stroke-linecap="round" stroke-linejoin="round" stroke-width=".65"/><path d="M4.5 27.15q1.3-.9 2.7-.9 1.8 0 2.8 1.1" fill="none" stroke="#fff" stroke-linecap="round" stroke-linejoin="round" stroke-opacity=".6" transform="translate(-2.3 -24.75)"/><path d="M10 32.4q-1.3.9-2.7.9-1.8 0-2.8-1.1" fill="none" stroke="#000" stroke-linecap="round" stroke-linejoin="round" stroke-opacity=".302" transform="translate(-2.3 -24.75)"/></g></defs></svg>

<?xml version="1.0" encoding="UTF-8" standalone="no"?>
<svg xmlns:xlink="http://www.w3.org/1999/xlink" height="99.2px" width="82.2px" xmlns="http://www.w3.org/2000/svg">
  <g transform="matrix(1.0, 0.0, 0.0, 1.0, 31.0, 46.75)">
    <use height="9.85" transform="matrix(1.0, 0.0, 0.0, 1.0, 2.3, 24.75)" width="9.9" xlink:href="#shape0"/>
  </g>
  <defs>
    <g id="shape0" transform="matrix(1.0, 0.0, 0.0, 1.0, -2.3, -24.75)">
      <path d="M12.2 29.65 Q12.15 31.65 10.7 33.15 9.25 34.6 7.2 34.6 5.2 34.6 3.8 33.15 2.3 31.65 2.3 29.65 2.3 27.6 3.8 26.2 5.2 24.7 7.2 24.75 9.25 24.7 10.7 26.2 12.15 27.6 12.2 29.65" fill="#000000" fill-rule="evenodd" stroke="none"/>
      <path d="M11.15 29.65 Q11.15 31.25 10.05 32.45 8.85 33.6 7.2 33.6 5.55 33.6 4.4 32.45 3.25 31.25 3.25 29.65 3.25 28.0 4.4 26.8 5.55 25.65 7.2 25.7 8.85 25.65 10.05 26.8 11.15 28.0 11.15 29.65" fill="#eef5ff" fill-rule="evenodd" stroke="none"/>
      <path d="M7.15 25.7 L7.15 33.65" fill="none" stroke="#ff0000" stroke-linecap="round" stroke-linejoin="round" stroke-width="0.65"/>
      <path d="M3.05 29.6 L11.2 29.6" fill="none" stroke="#ff0000" stroke-linecap="round" stroke-linejoin="round" stroke-width="0.65"/>
      <path d="M4.5 27.15 Q5.8 26.25 7.2 26.25 9.0 26.25 10.0 27.35" fill="none" stroke="#ffffff" stroke-linecap="round" stroke-linejoin="round" stroke-opacity="0.6" stroke-width="1.0"/>
      <path d="M10.0 32.4 Q8.7 33.3 7.3 33.3 5.5 33.3 4.5 32.2" fill="none" stroke="#000000" stroke-linecap="round" stroke-linejoin="round" stroke-opacity="0.3019608" stroke-width="1.0"/>
    </g>
  </defs>
</svg>
